X: 160756
T: Patsy Tuohy's
M: 6/8
L: 1/8
S: B.Flaherty
Z: B.Black
R: jig
K: D
A2 d cAG | ABA A2 G | FEF DEF | GFG EFG |
A2 d cAG | ABA A2 g | fed edc |1 Adc dFG :|2\
Adc d2 ||
e | f2-f fed | efe edc | dcd dcd | ecA Ade |
f/g/af fed | e/f/ge e2 g |1 fed cAG | Adc d2 :|2\
faf ede | fdc dFG ||
